src/actions/16/view-object-histogram-logarithmic.svg

<svg xmlns="http://www.w3.org/2000/svg" viewBox="0 0 16 16">
    <path d="M2 2v12h12v-1h-1V8h-1V6h-1v3h-1V7H9V5H8V2H7v2H6v2H5v1H4v1H3V2H2z" style="fill:currentColor;fill-opacity:1;stroke:none;color:#050505;opacity:.7"/>
</svg>

<svg xmlns="http://www.w3.org/2000/svg" viewBox="0 0 16 16">
  <defs id="defs3051">
    <style type="text/css" id="current-color-scheme">
      .ColorScheme-Text {
        color:#363636;
      }
      </style>
  </defs>
 <path style="fill:currentColor;fill-opacity:1;stroke:none" 
       d="M 2 2 L 2 14 L 3 14 L 14 14 L 14 13 L 13 13 L 13 11 L 13 8 L 12 8 L 12 6 L 11 6 L 11 9 L 10 9 L 10 7 L 9 7 L 9 5 L 8 5 L 8 2 L 7 2 L 7 4 L 6 4 L 6 6 L 5 6 L 5 7 L 4 7 L 4 8 L 3 8 L 3 2 L 2 2 z "
     class="ColorScheme-Text"
     />
</svg>
